packages/foundations/icons/Health/Cross.svg

<svg width="24" height="24" viewBox="0 0 24 24" fill="none" xmlns="http://www.w3.org/2000/svg">
<path fill-rule="evenodd" clip-rule="evenodd" d="M8.58579 1.58579C8.94662 1.22495 9.44799 1 10 1H14C14.552 1 15.0534 1.22495 15.4142 1.58579C15.775 1.94662 16 2.44799 16 3V8H21C21.552 8 22.0534 8.22495 22.4142 8.58579C22.775 8.94662 23 9.44799 23 10V14C23 14.552 22.775 15.0534 22.4142 15.4142C22.0534 15.775 21.552 16 21 16H16V21C16 21.552 15.775 22.0534 15.4142 22.4142C15.0534 22.775 14.552 23 14 23H10C9.44799 23 8.94662 22.775 8.58579 22.4142C8.22495 22.0534 8 21.552 8 21V16H3C2.44799 16 1.94662 15.775 1.58579 15.4142C1.22495 15.0534 1 14.552 1 14V10C1 9.44799 1.22495 8.94662 1.58579 8.58579C1.94662 8.22495 2.44799 8 3 8H8V3C8 2.44799 8.22495 1.94662 8.58579 1.58579ZM14 3H10V10H3V14H10V21H14V14H21V10H14V3Z" fill="#3D474D"/>
</svg>

<svg xmlns="http://www.w3.org/2000/svg" fill="none" viewBox="0 0 24 24" width="100%" height="100%">
  <path fill="#3D474D" fill-rule="evenodd" d="M8.586 1.586C8.946 1.225 9.448 1 10 1h4a1.997 1.997 0 0 1 2 2v5h5a1.997 1.997 0 0 1 2 2v4a1.997 1.997 0 0 1-2 2h-5v5a1.997 1.997 0 0 1-2 2h-4a1.997 1.997 0 0 1-2-2v-5H3a1.997 1.997 0 0 1-2-2v-4a1.997 1.997 0 0 1 2-2h5V3c0-.552.225-1.053.586-1.414ZM14 3h-4v7H3v4h7v7h4v-7h7v-4h-7V3Z" clip-rule="evenodd"/>
</svg>
